Catalina-dark/actions/22/kdenlive-insert-edit.svg

<svg width="22" height="22" viewBox="3 9 16 6" xmlns="http://www.w3.org/2000/svg">
<defs>
<style id="current-color-scheme" type="text/css">.ColorScheme-Text {
        color:#f2f2f2;
      }
      .ColorScheme-Highlight {
        color:#3daee9;
      }</style>
</defs>
<path class="ColorScheme-Text" d="m3 11v4h4v-4h-4zm12 0v4h4v-4h-4z" fill="currentColor"/>
<path class="ColorScheme-Highlight" d="m8 9v5h6v-5h-6z" fill="currentColor"/>
</svg>

<svg xmlns="http://www.w3.org/2000/svg" viewBox="0 0 22 22">
  <defs id="defs3051">
    <style type="text/css" id="current-color-scheme">
      .ColorScheme-Text {
        color:#f2f2f2;
      }
      .ColorScheme-Highlight {
        color:#3daee9;
      }
      </style>
  </defs>
 <path 
     style="fill:currentColor;fill-opacity:1;stroke:none" 
     d="M 3 11 L 3 15 L 7 15 L 7 11 L 3 11 z M 15 11 L 15 15 L 19 15 L 19 11 L 15 11 z "
     class="ColorScheme-Text"
     />
 <path 
     style="fill:currentColor;fill-opacity:1;stroke:none" 
     d="M 8 9 L 8 14 L 14 14 L 14 9 L 8 9 z "
     class="ColorScheme-Highlight"
     />
</svg>
